X: 73
T: Loquebantur variis linguis
C: Gaspar van Weerbeke
%%abc-version 2.0
%%abcx-abcm2ps-target-version 5.9.1 (29 Sep 2008)
%%abc-creator hum2abc beta
%%abcx-conversion-date 2022/03/06 13:05:56
%%abc-copyright Copyright 1994, Lindmayr-Brandl, Andrea
%%abc-edited-by Mair-Gruber, Roland
%%humdrum-veritas 1728498455
%%humdrum-veritas-data 1072264826
%%linebreak <none>
%%barnumbers 0
L: 1/4
M: 2/2
N: Derived from Gas0303e-In_honorem_sancti_spiritus-Loquebantur_variis_linguis.krn
%%staves [1 2 3 4]
V: 1 clef=treble
V: 2 clef=treble-8
V: 3 clef=treble-8
V: 4 clef=bass
K: C
[V:1] z4 | 
[V:2] z4 | 
[V:3] G2G/A/B/c/ | 
[V:4] G,,4- | 
[V:1] z4 | 
[V:2] z4 | 
[V:3] B3G | 
[V:4] G,,4 | 
[V:1] z4 | 
[V:2] z4 | 
[V:3] B>cdc/B/ | 
[V:4] D,4 | 
[V:1] z4 | 
[V:2] z4 | 
[V:3] A2D2 | 
[V:4] F,4- | 
[V:1] z4 | 
[V:2] z4 | 
[V:3] zd>cB/A/ | 
[V:4] F,4 | 
[V:1] z4 | 
[V:2] z4 | 
[V:3] BA/B/ c/B/A/G/ | 
[V:4] G,D,_E,2 | 
[V:1] z4 | 
[V:2] z4 | 
[V:3] F>GA_B- | 
[V:4] D,2C,D,- | 
[V:1] z4 | 
[V:2] z4 | 
[V:3] BA/G/ A/G/F/E/ | 
[V:4] D,C,/_B,,/C,D,- | 
[V:1] z4 | 
[V:2] z4 | 
[V:3] DG2^F | 
[V:4] D,B,,A,,2 | 
[V:1] z4 | 
[V:2] z4 | 
[V:3] G4 | 
[V:4] G,,4 | 
[V:1] G4- | 
[V:2] g3e- | 
[V:3] z4 | 
[V:4] z4 | 
[V:1] G4 | 
[V:2] ed/c/Bc- | 
[V:3] z4 | 
[V:4] z4 | 
[V:1] G4 | 
[V:2] cB/A/ G/A/B/c/ | 
[V:3] z4 | 
[V:4] z4 | 
[V:1] F4- | 
[V:2] d2zD- | 
[V:3] z4 | 
[V:4] z4 | 
[V:1] F4 | 
[V:2] D/E/F/G/ A/B/c/d/ | 
[V:3] z4 | 
[V:4] z4 | 
[V:1] G>FD2 | 
[V:2] e3/d//e//fe/d/ | 
[V:3] z4 | 
[V:4] z4 | 
[V:1] CDE2 | 
[V:2] ed2^c | 
[V:3] z4 | 
[V:4] z4 | 
[V:1] D2z2 | 
[V:2] d3c/B/ | 
[V:3] D2D/E/F/G/ | 
[V:4] z4 | 
[V:1] z4 | 
[V:2] c/B/A/G/A2 | 
[V:3] AG2^F | 
[V:4] z4 | 
[V:1] D2D/E/F/G/ | 
[V:2] G2z2 | 
[V:3] Gd2c/B/ | 
[V:4] z4 | 
[V:1] AG2^F | 
[V:2] z4 | 
[V:3] c/B/A/G/A2 | 
[V:4] z4 | 
[V:1] Gd2c/B/ | 
[V:2] d2d/e/f/g/ | 
[V:3] G2z2 | 
[V:4] z4 | 
[V:1] c/B/A/G/A2 | 
[V:2] ag2^f | 
[V:3] z4 | 
[V:4] z4 | 
[V:1] G2z2 | 
[V:2] g2z2 | 
[V:3] G2G/A/B/c/ | 
[V:4] G,3F,/E,/ | 
[V:1] z4 | 
[V:2] z4 | 
[V:3] dc2B | 
[V:4] F,/E,/D,/C,/D,2 | 
[V:1] z4 | 
[V:2] g3f/e/ | 
[V:3] c2z2 | 
[V:4] C,2E,2 | 
[V:1] z4 | 
[V:2] f/e/d/c/d2 | 
[V:3] z4 | 
[V:4] D,C,2B,, | 
[V:1] G3F/E/ | 
[V:2] ce2d/c/ | 
[V:3] z4 | 
[V:4] C,4 | 
[V:1] F/E/D/C/D2 | 
[V:2] d/c/B/A/B2 | 
[V:3] z2G2 | 
[V:4] z4 | 
[V:1] C/D/E/F/GA- | 
[V:2] c>de/d/f- | 
[V:3] Ac>BA/G/ | 
[V:4] z4 | 
[V:1] A/G/c2B | 
[V:2] f/e/cd2 | 
[V:3] FAG2 | 
[V:4] z4 | 
[V:1] c4 | 
[V:2] c>BAG/F/ | 
[V:3] A3c- | 
[V:4] z4 | 
[V:1] c4 | 
[V:2] E2A2 | 
[V:3] c/B/A/G/FA- | 
[V:4] A,,4- | 
[V:1] c3B/A/ | 
[V:2] z2A2 | 
[V:3] AG2^F | 
[V:4] A,,4 | 
[V:1] B4 | 
[V:2] D2d2- | 
[V:3] G4 | 
[V:4] G,,4 | 
[V:1] A2d2- | 
[V:2] def2 | 
[V:3] z2F2 | 
[V:4] D,4 | 
[V:1] dcB2 | 
[V:2] dgd3/e/ | 
[V:3] G4 | 
[V:4] G,,2G,2 | 
[V:1] A2c3/B/ | 
[V:2] fe/d/ c/B/A/G/ | 
[V:3] A3B | 
[V:4] F,3G, | 
[V:1] A/G<AG/F- | 
[V:2] F>GA2 | 
[V:3] c3d- | 
[V:4] A,2F,D, | 
[V:1] F/E/A2^G | 
[V:2] Dde2 | 
[V:3] d/c/AB2 | 
[V:4] F,2E,2 | 
[V:1] A4 | 
[V:2] c2z2 | 
[V:3] A3F- | 
[V:4] F,2D,2 | 
[V:1] z4 | 
[V:2] A>Bcd | 
[V:3] FE/D/ED | 
[V:4] z4 | 
[V:1] z4 | 
[V:2] Ad>ef- | 
[V:3] F>EGF | 
[V:4] z4 | 
[V:1] z4 | 
[V:2] fe/d/ e/d/c/B/ | 
[V:3] D2GA | 
[V:4] z4 | 
[V:1] z4 | 
[V:2] Ad2^c | 
[V:3] FDE2 | 
[V:4] z4 | 
[V:1] z4 | 
[V:2] d4- | 
[V:3] D>EFG | 
[V:4] z4 | 
[V:1] z4 | 
[V:2] d4 | 
[V:3] DG>AB- | 
[V:4] z4 | 
[V:1] z4 | 
[V:2] dc/B/ c/B/A/G/ | 
[V:3] BA/G/A/G/c- | 
[V:4] z4 | 
[V:1] z4 | 
[V:2] FGA2 | 
[V:3] c/B/A/G<FD/ | 
[V:4] z4 | 
[V:1] z4 | 
[V:2] G/A/B/c/de/d/ | 
[V:3] G/F<GF/G/F/ | 
[V:4] z4 | 
[V:1] z2c2 | 
[V:2] e/d/g2^f | 
[V:3] G2A2 | 
[V:4] z4 | 
[V:1] B2d2- | 
[V:2] g3f/e/ | 
[V:3] G4 | 
[V:4] z4 | 
[V:1] dc/B/Ac- | 
[V:2] df2e/d/ | 
[V:3] z4 | 
[V:4] z4 | 
[V:1] cB/A/GB- | 
[V:2] ce2d/c/ | 
[V:3] z4 | 
[V:4] z4 | 
[V:1] BA/G/FA- | 
[V:2] Bd2c/B/ | 
[V:3] z4 | 
[V:4] z4 | 
[V:1] AG/F/E2 | 
[V:2] Ad2c | 
[V:3] z2A2 | 
[V:4] z4 | 
[V:1] D/E/F/G/AB | 
[V:2] d>efg | 
[V:3] Bd2G | 
[V:4] z4 | 
[V:1] cd2c/B/ | 
[V:2] edg2 | 
[V:3] ABG/A/B/c/ | 
[V:4] z4 | 
[V:1] AGA2 | 
[V:2] fg2^f | 
[V:3] dBcd | 
[V:4] z4 | 
[V:1] [M:3/2]G6 | 
[V:2] [M:3/2]g4e2 | 
[V:3] [M:3/2]G6 | 
[V:4] [M:3/2]G,4G,2 | 
[V:1] z6 | 
[V:2] c4d2 | 
[V:3] z6 | 
[V:4] A,2>G,2F,2 | 
[V:1] z6 | 
[V:2] e2>d2c2 | 
[V:3] G4G2 | 
[V:4] E,2C,2E,2 | 
[V:1] z6 | 
[V:2] d2>A2B2 | 
[V:3] A2>G2F2 | 
[V:4] F,2D,4 | 
[V:1] G4G2 | 
[V:2] c4d2 | 
[V:3] EFGAB2 | 
[V:4] C,4B,,2 | 
[V:1] A2>G2F2 | 
[V:2] e4d2 | 
[V:3] c4d2 | 
[V:4] A,,4B,,2 | 
[V:1] EFGAB2 | 
[V:2] g2>f2d2 | 
[V:3] c4B2 | 
[V:4] C,D,E,F,G,2 | 
[V:1] c2BA2G | 
[V:2] c2df2d | 
[V:3] A2dc2B | 
[V:4] A,2G,F,2G, | 
[V:1] G4^F2 | 
[V:2] c2d4 | 
[V:3] G2A4 | 
[V:4] E,2D,4 | 
[V:1] G4z2 | 
[V:2] B4c2 | 
[V:3] G6 | 
[V:4] E,4C,2 | 
[V:1] c4B2 | 
[V:2] e2>f2g2 | 
[V:3] z6 | 
[V:4] A,,4G,,2 | 
[V:1] A2>F2G3/A/ | 
[V:2] e4e2 | 
[V:3] c4B2 | 
[V:4] z2A,,2E,2 | 
[V:1] F2E3D | 
[V:2] c4c2 | 
[V:3] A2>G2A2 | 
[V:4] F,2C,3A,, | 
[V:1] D4^C2 | 
[V:2] A4A2 | 
[V:3] F2E4 | 
[V:4] D,2A,,4 | 
[V:1] D4z2 | 
[V:2] F4z2 | 
[V:3] D4d2 | 
[V:4] A,4D,2 | 
[V:1] z6 | 
[V:2] z6 | 
[V:3] B2c2d2- | 
[V:4] G,2E,2F,2 | 
[V:1] z6 | 
[V:2] z6 | 
[V:3] d2B2c2 | 
[V:4] G,4E,2 | 
[V:1] z6 | 
[V:2] z6 | 
[V:3] d2>c2BA | 
[V:4] F,2G,3F, | 
[V:1] z6 | 
[V:2] z6 | 
[V:3] GF2<A2G | 
[V:4] E,D,C,2D,2 | 
[V:1] z6 | 
[V:2] z6 | 
[V:3] G4^F2 | 
[V:4] B,,2A,,4 | 
[V:1] z4d2 | 
[V:2] d4d2 | 
[V:3] G2>A2Bc | 
[V:4] G,,4G,2- | 
[V:1] B2c2d2- | 
[V:2] g2e>fg2 | 
[V:3] d2c2B2 | 
[V:4] G,2A,2G,2 | 
[V:1] d2B2c2 | 
[V:2] f2g2ec | 
[V:3] d4c2 | 
[V:4] D,2G,2A,2 | 
[V:1] d2>c2BA | 
[V:2] g2f2g2 | 
[V:3] B2d3c | 
[V:4] G,2D,2G,2- | 
[V:1] GF2<A2G | 
[V:2] ecf2dB | 
[V:3] BAc2B2 | 
[V:4] G,A,F,2G,2 | 
[V:1] G4^F2 | 
[V:2] c2d4 | 
[V:3] G2A4 | 
[V:4] E,2D,4 | 
[V:1] G4-G2 |]  
[V:2] d4-d2 |]  
[V:3] G4-G2 |]  
[V:4] G,,4-G,,2 |]  


